X:34
T:Humours of Derrykissane, The
T:Humours of Derrykosane, The
T:Humours of Derrycrossane, The
R:slip jig
H:Also in D, #33
H:Similar to "The Foxhunter's Jig", #2
Z:id:hn-slipjig-34
M:9/8
K:G
~B3 BdB c2d|BAG BdB ABc|BAG BdB c2e|1 dBG GDG G2A:|2 dBG GDG G2d||
~g3 edc Bcd|ecA AcA A2d|~g3 edc Bcd|gdB GAG G2d|
~g3 edc Bcd|ecA AcA A2A|def gfe def|gbg agf g2c||
<end>
<start>
